X: 36479
T: Selkie, The
R: waltz
M: 3/4
K: Bminor
|:F2A|B3 d2B|A2F D2F|d2f e2d|c3 e2d|
B3 B2A|B2A f2e|d2c A2B|c3 F2A|
B3 d2B|A2F D2F|d2f e2d|e2g f2e|
d2c B2A|F2E D2E|F2E F2A|B3:|

